X: 6
T: Charlie Hunter
R: jig
M: 6/8
L: 1/8
K: Dmaj
|: D2 A G2 d | Adf a2 g | fed Bcd | ecA GFE |
D2 A GB/c/d | Adf a2 g | f^ef g=ec |[1 edc d3 :|[2 edc d2 ||
f/g/ |a2 d dc=c | BGF G2 F | EGB e2 d | cA^G A2 g |
fdA FD/E/F | GB/c/d g2 g | f^ef g=ec | edc d2 f |
a2 d dc=c | B2 F G3 | b^ge e^de | cA^G A3 |
fdA F3 | GBd g3 | f2 f gec | edc d3 |]


Tune 809	Setting 26171

